public/lightinsta.svg

<svg width="100" height="100" viewBox="0 0 100 100" fill="none" xmlns="http://www.w3.org/2000/svg">
<path fill-rule="evenodd" clip-rule="evenodd" d="M50 0C77.5957 0 100 22.4043 100 50C100 77.5957 77.5957 100 50 100C22.4043 100 0 77.5957 0 50C0 22.4043 22.4043 0 50 0ZM50 18.75C41.5131 18.75 40.4488 18.7859 37.1156 18.9381C33.7895 19.0898 31.5178 19.6182 29.5299 20.3906C27.475 21.1893 25.7322 22.2578 23.9949 23.9951C22.2576 25.7324 21.1891 27.4752 20.3904 29.5301C19.618 31.5178 19.0898 33.7895 18.9379 37.1156C18.7859 40.4488 18.75 41.5131 18.75 50C18.75 58.4869 18.7859 59.5512 18.9379 62.8844C19.0898 66.2105 19.618 68.4822 20.3904 70.4699C21.1891 72.5248 22.2576 74.2676 23.9949 76.0051C25.7322 77.7424 27.475 78.8109 29.5299 79.6096C31.5178 80.3818 33.7895 80.9102 37.1156 81.0619C40.4488 81.2141 41.5131 81.25 50 81.25C58.4869 81.25 59.5512 81.2141 62.8844 81.0619C66.2105 80.9102 68.4822 80.3818 70.4699 79.6096C72.5248 78.8109 74.2676 77.7424 76.0051 76.0051C77.7424 74.2676 78.8109 72.5248 79.6096 70.4699C80.3818 68.4822 80.9102 66.2105 81.0619 62.8844C81.2141 59.5512 81.25 58.4869 81.25 50C81.25 41.5131 81.2141 40.4488 81.0619 37.1156C80.9102 33.7895 80.3818 31.5178 79.6096 29.5301C78.8109 27.4752 77.7424 25.7324 76.0051 23.9951C74.2676 22.2578 72.5248 21.1893 70.4699 20.3906C68.4822 19.6182 66.2105 19.0898 62.8844 18.9381C59.5512 18.7859 58.4869 18.75 50 18.75ZM50 24.3807C58.3441 24.3807 59.3324 24.4125 62.6277 24.5629C65.6746 24.702 67.3291 25.2109 68.4303 25.6389C69.8891 26.2057 70.9301 26.883 72.0234 27.9766C73.1172 29.0699 73.7943 30.1111 74.3611 31.5697C74.7891 32.6709 75.2982 34.3254 75.4371 37.3723C75.5875 40.6676 75.6193 41.6559 75.6193 50C75.6193 58.3441 75.5875 59.3324 75.4371 62.6277C75.2982 65.6746 74.7891 67.3291 74.3611 68.4303C73.7943 69.8891 73.1172 70.9301 72.0234 72.0234C70.9301 73.1172 69.8891 73.7943 68.4303 74.3611C67.3291 74.7891 65.6746 75.2982 62.6277 75.4371C59.333 75.5875 58.3447 75.6193 50 75.6193C41.6553 75.6193 40.6672 75.5875 37.3723 75.4371C34.3254 75.2982 32.6709 74.7891 31.5697 74.3611C30.1109 73.7943 29.0699 73.1172 27.9764 72.0234C26.8828 70.9301 26.2057 69.8891 25.6389 68.4303C25.2109 67.3291 24.7018 65.6746 24.5627 62.6277C24.4123 59.3324 24.3807 58.3441 24.3807 50C24.3807 41.6559 24.4123 40.6676 24.5627 37.3723C24.7018 34.3254 25.2109 32.6709 25.6389 31.5697C26.2057 30.1111 26.8828 29.0699 27.9764 27.9766C29.0699 26.883 30.1109 26.2057 31.5697 25.6389C32.6709 25.2109 34.3254 24.702 37.3723 24.5629C40.6676 24.4125 41.6559 24.3807 50 24.3807ZM50 33.9527C41.1373 33.9527 33.9527 41.1373 33.9527 50C33.9527 58.8627 41.1373 66.0473 50 66.0473C58.8627 66.0473 66.0473 58.8627 66.0473 50C66.0473 41.1373 58.8627 33.9527 50 33.9527ZM50 60.4166C44.2471 60.4166 39.5834 55.7529 39.5834 50C39.5834 44.2471 44.2471 39.5834 50 39.5834C55.7529 39.5834 60.4166 44.2471 60.4166 50C60.4166 55.7529 55.7529 60.4166 50 60.4166ZM70.4314 33.3187C70.4314 35.3898 68.7523 37.0686 66.6813 37.0686C64.6104 37.0686 62.9314 35.3898 62.9314 33.3187C62.9314 31.2477 64.6104 29.5688 66.6813 29.5688C68.7523 29.5688 70.4314 31.2477 70.4314 33.3187Z" fill="#17A68C"/>
</svg>

<svg xmlns="http://www.w3.org/2000/svg" width="100" height="100" fill="none" xmlns:v="https://vecta.io/nano"><path fill-rule="evenodd" d="M50 0c27.596 0 50 22.404 50 50s-22.404 50-50 50S0 77.596 0 50 22.404 0 50 0zm0 18.75c-8.487 0-9.551.036-12.884.188-3.326.152-5.598.68-7.586 1.453-2.055.799-3.798 1.867-5.535 3.605s-2.806 3.48-3.605 5.535c-.772 1.988-1.301 4.259-1.453 7.586-.152 3.333-.188 4.398-.188 12.884l.188 12.884c.152 3.326.68 5.598 1.453 7.585a15.32 15.32 0 0 0 3.605 5.535c1.737 1.737 3.48 2.806 5.535 3.605 1.988.772 4.26 1.301 7.586 1.452 3.333.152 4.398.188 12.884.188s9.551-.036 12.884-.188c3.326-.152 5.598-.68 7.585-1.452a15.32 15.32 0 0 0 5.535-3.605 15.32 15.32 0 0 0 3.605-5.535c.772-1.988 1.301-4.259 1.452-7.585.152-3.333.188-4.398.188-12.884l-.188-12.884c-.152-3.326-.68-5.598-1.452-7.585-.799-2.055-1.867-3.798-3.605-5.535a15.32 15.32 0 0 0-5.535-3.605c-1.988-.772-4.259-1.301-7.585-1.453-3.333-.152-4.398-.188-12.884-.188zm0 5.631l12.628.182c3.047.139 4.701.648 5.803 1.076 1.459.567 2.5 1.244 3.593 2.338s1.771 2.134 2.338 3.593c.428 1.101.937 2.756 1.076 5.803.15 3.295.182 4.284.182 12.628l-.182 12.628c-.139 3.047-.648 4.701-1.076 5.803a9.67 9.67 0 0 1-2.338 3.593 9.67 9.67 0 0 1-3.593 2.338c-1.101.428-2.756.937-5.803 1.076-3.295.15-4.283.182-12.628.182s-9.333-.032-12.628-.182c-3.047-.139-4.701-.648-5.803-1.076-1.459-.567-2.5-1.244-3.593-2.338s-1.771-2.134-2.338-3.593c-.428-1.101-.937-2.756-1.076-5.803-.15-3.295-.182-4.284-.182-12.628l.182-12.628c.139-3.047.648-4.701 1.076-5.803.567-1.459 1.244-2.5 2.338-3.593s2.134-1.771 3.593-2.338c1.101-.428 2.756-.937 5.803-1.076 3.295-.15 4.284-.182 12.628-.182zm0 9.572A16.05 16.05 0 0 0 33.953 50 16.05 16.05 0 0 0 50 66.047 16.05 16.05 0 0 0 66.047 50 16.05 16.05 0 0 0 50 33.953zm0 26.464A10.42 10.42 0 0 1 39.583 50 10.42 10.42 0 0 1 50 39.583 10.42 10.42 0 0 1 60.417 50 10.42 10.42 0 0 1 50 60.417zm20.431-27.098a3.75 3.75 0 1 1-7.5 0 3.75 3.75 0 1 1 7.5 0z" fill="#17a68c"/></svg>
